!!!SOCIAL_FUNCTION:	songs of the hand-game
!!!PDT:	1936
!!!OTL: No_39_Singing_for_That_Bean.krn
!!!REG: Oklahoma and Montana
!!!LANG: Tone
!!!LING_GROUP: Algonquin
**kern	**kern
*staff2	*staff1
=1-	=1-
*clefF4	*clefF4
*k[b-]	*k[b-]
*M2/4	*M2/4
8GG^/L	4r
8GG/J	.
8GG^/L	8.G\L
8GG/J	.
.	16c\Jk
=2!|:	=2!|:
8GG^/L	4c\
8GG/J	.
8GG^/L	8c\L
8GG/J	8B-\J
=3	=3
*M3/4	*M3/4
2.r	4c\
.	8A\
.	8r
.	8.G\L
.	16c\Jk
=4	=4
*M2/4	*M2/4
2r	4c\
.	8c\L
.	8B-\J
=5	=5
2r	4c\
.	8A\
.	8r
=6	=6
2r	4A\
.	8c\L
.	8A\J
=7	=7
*M3/4	*M3/4
2.r	8A\L
.	8F\J
.	4F\
.	8.F\L
.	16F\Jk
=8	=8
*M2/4	*M2/4
2r	(8F/L
.	8C/J)
.	8C/
.	8r
=9	=9
2r	4A\
.	8c\L
.	8A\J
=10	=10
*M3/4	*M3/4
2.r	8A\L
.	8F\J
.	4F\
.	8.F\L
.	16F\Jk
=11	=11
2.r	8F/L
.	8C/J
.	8C/
.	8r
.	8.C/L
.	16c/Jk
=12:|!	=12:|!
2.r	8F/L
.	8C/J
.	8C/
.	4.r
==	==
*-	*-
